svgs/thin/circle-r.svg

<svg xmlns="http://www.w3.org/2000/svg" viewBox="0 0 512 512"><!-- Font Awesome Pro 6.0.0-alpha2 by @fontawesome - https://fontawesome.com License - https://fontawesome.com/license (Commercial License) --><path d="M368 208C368 163.891 332.125 128 288 128H168C163.594 128 160 131.578 160 136V376C160 380.422 163.594 384 168 384S176 380.422 176 376V288H276.24L353.844 381.125C355.438 383.016 357.719 384 360 384C361.812 384 363.625 383.391 365.125 382.141C368.531 379.312 368.969 374.266 366.156 370.875L296.387 287.152C336.525 282.895 368 249.238 368 208ZM288 272H176V144H288C323.281 144 352 172.703 352 208S323.281 272 288 272ZM256 16C123.451 16 16 123.451 16 256S123.451 496 256 496S496 388.549 496 256S388.549 16 256 16ZM256 480C132.486 480 32 379.514 32 256S132.486 32 256 32S480 132.486 480 256S379.514 480 256 480Z"/></svg>

<svg xmlns="http://www.w3.org/2000/svg" viewBox="0 0 512 512"><!--! Font Awesome Pro 6.0.0-alpha3 by @fontawesome - https://fontawesome.com License - https://fontawesome.com/license (Commercial License) --><path d="M368 208C368 163.9 332.1 128 288 128H168C163.6 128 160 131.6 160 136v240C160 380.4 163.6 384 168 384s8-3.578 8-8V288h100.2l77.6 93.13C355.4 383 357.7 384 360 384c1.812 0 3.625-.6094 5.125-1.859c3.406-2.828 3.844-7.875 1.031-11.27l-69.77-83.72C336.5 282.9 368 249.2 368 208zM288 272H176v-128H288c35.28 0 64 28.7 64 64S323.3 272 288 272zM256 0C114.6 0 0 114.6 0 256s114.6 256 256 256s256-114.6 256-256S397.4 0 256 0zM256 496c-132.3 0-240-107.7-240-240S123.7 16 256 16s240 107.7 240 240S388.3 496 256 496z"/></svg>
